Papirus/24x24/mimetypes/text-x-nix.svg

<svg width="24" height="24" version="1.1" xmlns="http://www.w3.org/2000/svg">
 <path transform="translate(1,1)" d="m4 1.5c-0.554 0-1 0.446-1 1v18c0 0.554 0.446 1 1 1h14c0.554 0 1-0.446 1-1v-13l-6-6z" style="opacity:.2"/>
 <path transform="translate(1,1)" d="m4 1c-0.554 0-1 0.446-1 1v18c0 0.554 0.446 1 1 1h14c0.554 0 1-0.446 1-1v-13l-5-1-1-5z" style="fill:#4d6fb7"/>
 <path transform="translate(1,1)" d="m19 7.5-6-6v5c0 0.554 0.446 1 1 1z" style="opacity:.2"/>
 <path transform="translate(1,1)" d="m19 7-6-6v5c0 0.554 0.446 1 1 1z" style="fill:#87adfa"/>
 <path transform="translate(1,1)" d="m4 1c-0.554 0-1 0.446-1 1v0.5c0-0.554 0.446-1 1-1h9v-0.5z" style="fill:#ffffff;opacity:.1"/>
 <path transform="translate(1,1)" d="m9 9.30386 5.3094 9.19614h-2.309402l-1.5-2.598074-1.499998 2.598074-1.1547007 4e-6 -0.577352-1 2.0773527-3.598074-1.5000007-2.598076z" style="opacity:.2"/>
 <path transform="translate(1,1)" d="M 9.000002,8.8038604 14.309402,18 H 12 L 10.5,15.401926 9.000002,18 l -1.1547007,4e-6 -0.577352,-1 L 9.345302,13.40193 7.8453013,10.803854 Z" style="fill:#ffffff"/>
</svg>

<svg xmlns="http://www.w3.org/2000/svg" xml:space="preserve" width="24" height="24" version="1.1">
 <defs>
  <style id="current-color-scheme" type="text/css">
   .ColorScheme-Text { color:#444444; } .ColorScheme-Highlight { color:#4285f4; } .ColorScheme-NeutralText { color:#ff9800; } .ColorScheme-PositiveText { color:#4caf50; } .ColorScheme-NegativeText { color:#f44336; }
  </style>
  <style id="current-color-scheme-0" type="text/css">
   .ColorScheme-Text { color:#444444; } .ColorScheme-Highlight { color:#4285f4; } .ColorScheme-NeutralText { color:#ff9800; } .ColorScheme-PositiveText { color:#4caf50; } .ColorScheme-NegativeText { color:#f44336; }
  </style>
  <style id="current-color-scheme-5" type="text/css">
   .ColorScheme-Text { color:#444444; } .ColorScheme-Highlight { color:#4285f4; } .ColorScheme-NeutralText { color:#ff9800; } .ColorScheme-PositiveText { color:#4caf50; } .ColorScheme-NegativeText { color:#f44336; }
  </style>
  <style id="current-color-scheme-0-3" type="text/css">
   .ColorScheme-Text { color:#444444; } .ColorScheme-Highlight { color:#4285f4; } .ColorScheme-NeutralText { color:#ff9800; } .ColorScheme-PositiveText { color:#4caf50; } .ColorScheme-NegativeText { color:#f44336; }
  </style>
  <style id="current-color-scheme-7" type="text/css">
   .ColorScheme-Text { color:#444444; } .ColorScheme-Highlight { color:#4285f4; } .ColorScheme-NeutralText { color:#ff9800; } .ColorScheme-PositiveText { color:#4caf50; } .ColorScheme-NegativeText { color:#f44336; }
  </style>
  <style id="current-color-scheme-0-0" type="text/css">
   .ColorScheme-Text { color:#444444; } .ColorScheme-Highlight { color:#4285f4; } .ColorScheme-NeutralText { color:#ff9800; } .ColorScheme-PositiveText { color:#4caf50; } .ColorScheme-NegativeText { color:#f44336; }
  </style>
  <style id="current-color-scheme-6" type="text/css">
   .ColorScheme-Text { color:#444444; } .ColorScheme-Highlight { color:#4285f4; } .ColorScheme-NeutralText { color:#ff9800; } .ColorScheme-PositiveText { color:#4caf50; } .ColorScheme-NegativeText { color:#f44336; }
  </style>
  <style id="current-color-scheme-0-7" type="text/css">
   .ColorScheme-Text { color:#444444; } .ColorScheme-Highlight { color:#4285f4; } .ColorScheme-NeutralText { color:#ff9800; } .ColorScheme-PositiveText { color:#4caf50; } .ColorScheme-NegativeText { color:#f44336; }
  </style>
 </defs>
 <path style="opacity:0.2" transform="translate(1,1)" d="m 4,1.5 c -0.554,0 -1,0.446 -1,1 v 18 c 0,0.554 0.446,1 1,1 h 14 c 0.554,0 1,-0.446 1,-1 v -13 l -6,-6 z"/>
 <path style="fill:#4d6fb7" transform="translate(1,1)" d="M 4,1 C 3.446,1 3,1.446 3,2 v 18 c 0,0.554 0.446,1 1,1 h 14 c 0.554,0 1,-0.446 1,-1 V 7 L 14,6 13,1 Z"/>
 <path style="opacity:0.2" transform="translate(1,1)" d="m 19,7.5 -6,-6 v 5 c 0,0.554 0.446,1 1,1 z"/>
 <path style="fill:#87adfa" transform="translate(1,1)" d="M 19,7 13,1 v 5 c 0,0.554 0.446,1 1,1 z"/>
 <path style="opacity:0.1;fill:#ffffff" transform="translate(1,1)" d="M 4,1 C 3.446,1 3,1.446 3,2 v 0.5 c 0,-0.554 0.446,-1 1,-1 h 9 V 1 Z"/>
 <path style="opacity:0.2" transform="translate(1,1)" d="M 9,9.30386 14.3094,18.5 h -2.309402 l -1.5,-2.598074 L 9,18.5 l -1.1547007,4e-6 -0.577352,-1 L 9.3453,13.90193 7.8452993,11.303854 Z"/>
 <path style="fill:#ffffff" transform="translate(1,1)" d="M 9.000002,8.8038604 14.309402,18 H 12 L 10.5,15.401926 9.000002,18 l -1.1547007,4e-6 -0.577352,-1 L 9.345302,13.40193 7.8453013,10.803854 Z"/>
</svg>
